X:320
T: Mickey Callaghan's #2
S: B.Breathnach: "Ceol Rince na hEireann" II/71
Z: B.Black
N: Close relative of "Patsy Geary's"
L: 1/8
M: 6/8
R: jig
K: D
de|f2f fef|a2a a2A|ABA BAF|A3-A2z|
efe e3|efe dfa|b2a afe|d3 d2e|
faf d2f|a2a a3|ABA BAF|A3-A2z|
efe e3|efe dfa|b2a afe|d3 d2||
B|A2A AFA|B2B BAG|F2A dc/d/e|f3-f2f|
g2g f2f|efe d2B|ABA AFD|E3 E2F|
DFA A2A|BcB BAG|F2A dc/d/e|f3-f2f|
g2g f2f|efe d2B|ABA GFE|D3 D2 ||

